X: 14241
T: I wish that you were dead good man
T: The Fiddler's Morris; A Lad Was Born In Kyle; Watson's Scots Measure
%R: march, reel
B: James Oswald "The Caledonian Pocket Companion" v.1 b.4 p.24
S: https://ia800501.us.archive.org/18/items/caledonianpocket01rugg/caledonianpocket01rugg_bw.pdf
Z: 2020 John Chambers <jc:trillian.mit.edu>
M: C|
L: 1/8
K: G
"_Brisk"(DE) |\
G2G2 d2G2 | TB2A2 A3B | G2G2 d2G2 | B2g2 d3d |\
e2g2 B2d2 | (ed)(cB) A3B | G2g2 dedc | B2G2 G2 :|
|: d2 |\
g3a gabg | agab a2(ge) | dega {ga}b3a | g2g2 d3d |\
(ef)(gd) (Bc)(dB) | (ed)(cB) A2(BA) | G2g2 (de)(dc) | TB2(AG) G2 :: (DE) |
GBdg Bdgb | a2A2 A3B | GBdg Bdgb | GBdg Bdgb |\
ageg dBAB | e2AB cBcd | e2g2 dcBA | B2G2 G2 :: (ba) |
gbgd B2(bg) | agab ageg | dBde gaba | gage d2(ef) |\
gfed Te2dB | gedB AcBA | Ggfa gedc | B2G2 G2 :|
|: (DE) |\
G2(Bd) G2(Bd) | gdBG A2(FD) | G2(Bd) G2(Bd) | gdec B2gb |\
afgd ecdB | gdcB ABcd | e2g2 (dc)(BA) | B2G2 G2 :|
|: (BA) |\
G2g2 (Bd)g2 | (dg)b2 AcBA | G2d2 (Bd)g2 | (df)a2 (dg)b2 |\
afgd ecdB | gdcB ABcd | e2(ge) dBAd | B2G2 G2 :|


